dist/svg/u1F639.svg

<?xml version="1.0" encoding="UTF-8"?><svg id="Layer_1" xmlns="http://www.w3.org/2000/svg" viewBox="0 0 40 40"><g><g><path id="SVGID" d="M26.56156,4.83946c-.6036-.53633-1.54692-.36313-1.92433,.3507l-1.59388,3.01464c-.28237,.53407-.83695,.86818-1.44108,.86818h-3.20478c-.60412,0-1.15871-.33411-1.44108-.86818l-1.5939-3.01468c-.3774-.71381-1.32071-.887-1.92428-.35065C8.29374,9.41106,2,15.98341,2,20.7822c0,8.11449,8.05875,14.69221,18,14.69221s18-6.57772,18-14.69221c0-4.79881-6.2938-11.37146-11.43844-15.94274Z" style="fill:#ffb72d;"/><path d="M37.69436,18.83266l-3.38329,1.72463c-.78332,.39924-.78332,1.51836,0,1.91761l3.20772,1.63502c.30434-1.07085,.48121-2.18132,.48121-3.32773,0-.62239-.11007-1.2757-.30564-1.94954Z"/><path d="M2.30564,18.83266l3.38329,1.72463c.78332,.39924,.78332,1.51836,0,1.91761l-3.20772,1.63502c-.30434-1.07085-.48121-2.18132-.48121-3.32773,0-.62239,.11007-1.2757,.30564-1.94954Z"/></g><path d="M19.10047,16.85348h1.79906c.88139,0,1.35192,.82374,.77073,1.34928l-.89953,.81338c-.40836,.36925-1.13309,.36925-1.54145,0l-.89953-.81338c-.5812-.52553-.11066-1.34928,.77073-1.34928Z" style="fill:#ff5e01;"/><g><path d="M12.82179,15.577c-.22703,.11205-.48801-.08454-.4376-.33265,.28011-1.37863,1.46627-2.41395,2.88703-2.41395s2.60693,1.03533,2.88703,2.41395c.05041,.24811-.21057,.4447-.4376,.33265-.49547-.24454-1.34019-.55293-2.44943-.55293s-1.95397,.30839-2.44943,.55293Z"/><path d="M27.17821,15.577c.22703,.11205,.48801-.08454,.4376-.33265-.28011-1.37863-1.46627-2.41395-2.88703-2.41395s-2.60693,1.03533-2.88703,2.41395c-.05041,.24811,.21057,.4447,.4376,.33265,.49547-.24454,1.34019-.55293,2.44943-.55293,1.10924,0,1.95397,.30839,2.44943,.55293Z"/></g><g><path id="SVGID-2" d="M11.41897,20.20719c-.52153-.12503-1.01705,.31587-.94969,.84793,.59915,4.73247,4.63556,8.39271,9.53075,8.39271s8.93155-3.66023,9.5307-8.3927c.06736-.53206-.42816-.97296-.94969-.84793-2.51947,.60401-5.45032,.95126-8.58101,.95126s-6.06158-.34725-8.58106-.95126Z" style="fill:#ff6d00;"/><path d="M19.9518,23.47003c3.20073,0,6.162-1.20887,8.58508-3.25679-2.51071,.59829-5.42244,.94521-8.53688,.94521-3.16701,0-6.12942-.35549-8.66852-.97259,2.42946,2.0654,5.40435,3.28418,8.62032,3.28418Z" style="fill:#fff;"/></g><path d="M10.63816,22.15982c-.77337,.85368-2.09236,.91877-2.94603,.1454-.85368-.77337-.91877-2.09236-.1454-2.94603,.77337-.85368,5.14652-2.57439,5.14652-2.57439,0,0-1.28172,4.52134-2.05509,5.37501Z" style="fill:#fff;"/><path d="M29.36184,22.15982c.77337,.85368,2.09236,.91877,2.94603,.1454s.91877-2.09236,.1454-2.94603-5.14652-2.57439-5.14652-2.57439c0,0,1.28172,4.52134,2.05509,5.37501Z" style="fill:#fff;"/></g><rect width="40" height="40" style="fill:none;"/></svg>

<svg id="Layer_1" data-name="Layer 1" xmlns="http://www.w3.org/2000/svg" viewBox="0 0 40 40"><defs><style>.cls-1{fill:#ffb72d;}.cls-2{fill:#ff5e01;}.cls-3{fill:#ff6d00;}.cls-4{fill:#fff;}.cls-5{fill:none;}</style></defs><path id="SVGID" class="cls-1" d="M26.562,4.839a1.243,1.243,0,0,0-1.925.351L23.043,8.205a1.63,1.63,0,0,1-1.441.868H18.4a1.631,1.631,0,0,1-1.441-.868L15.363,5.19a1.243,1.243,0,0,0-1.925-.351C8.294,9.411,2,15.983,2,20.782,2,28.9,10.059,35.474,20,35.474S38,28.9,38,20.782C38,15.983,31.706,9.411,26.562,4.839Z"/><path d="M37.694,18.833l-3.383,1.724a1.077,1.077,0,0,0,0,1.918l3.208,1.635A12.148,12.148,0,0,0,38,20.782,7.02,7.02,0,0,0,37.694,18.833Z"/><path d="M2.306,18.833l3.383,1.724a1.077,1.077,0,0,1,0,1.918L2.481,24.11A12.148,12.148,0,0,1,2,20.782,7.02,7.02,0,0,1,2.306,18.833Z"/><path class="cls-2" d="M19.1,16.853h1.8c.881,0,1.351.824.77,1.35l-.9.813a1.212,1.212,0,0,1-1.542,0l-.9-.813C17.749,17.677,18.219,16.853,19.1,16.853Z"/><path d="M12.822,15.577a.307.307,0,0,1-.438-.333,2.933,2.933,0,0,1,5.774,0,.307.307,0,0,1-.437.333,5.7,5.7,0,0,0-4.9,0Z"/><path d="M27.178,15.577a.307.307,0,0,0,.438-.333,2.933,2.933,0,0,0-5.774,0,.307.307,0,0,0,.437.333,5.7,5.7,0,0,1,4.9,0Z"/><path id="SVGID-2" data-name="SVGID" class="cls-3" d="M11.419,20.207a.778.778,0,0,0-.95.848,9.608,9.608,0,0,0,19.062,0,.778.778,0,0,0-.95-.848A37.253,37.253,0,0,1,20,21.158,37.253,37.253,0,0,1,11.419,20.207Z"/><path class="cls-4" d="M19.952,23.47a13.239,13.239,0,0,0,8.585-3.257A37.207,37.207,0,0,1,20,21.158a37.181,37.181,0,0,1-8.669-.972A13.254,13.254,0,0,0,19.952,23.47Z"/><path class="cls-4" d="M10.638,22.16a2.086,2.086,0,1,1-3.091-2.8c.773-.853,5.146-2.574,5.146-2.574S11.412,21.306,10.638,22.16Z"/><path class="cls-4" d="M29.362,22.16a2.086,2.086,0,1,0,3.091-2.8c-.773-.853-5.146-2.574-5.146-2.574S28.588,21.306,29.362,22.16Z"/><rect class="cls-5" width="40" height="40"/></svg>
